**kern	**kern	**dynam
*part1	*part1	*part1
*staff2	*staff1	*
*I"Piano	*	*
*clefF4	*clefG2	*
*k[b-e-a-]	*k[b-e-a-]	*
=1	=1	=1
2AA- 2E- 2A-	2c 2e- 2cc	.
=	=	=
4GG 4E- 4G	4B- 4e- 4b-	.
4EE- 4E-	4B- 4e- 4g	.
=	=	=
(4BB-	(4e- 4g	.
8B-)	8d) 8f	.
8r	8r	.
=	=	=
2AA- 2D	2B- 2f	.
=	=	=
4.GG 4.E-	2B- 2g	.
8EE-	.	.
=	=	=
4BB-	4G 4e-	.
4BB-	4A- 4d 4f	.
=	=	=
(8EE-L	8G 8e-	.
8BB-	8r	.
!	!	!LO:DY:a
8E-	(16ggLL	p
.	16ee-JJ)	.
8BB-J)	8r	.
=	=	=
8DDL	4r	.
8BB-	.	.
8D	(16aa-LL	.
.	16ffJJ)	.
8BB-J	8r	.
=	=	=
*-	*-	*-
!!!system-decoration: {(s1,s2)}
